images/applications.svg

<svg xmlns="http://www.w3.org/2000/svg" xmlns:xlink="http://www.w3.org/1999/xlink" version="1.1" enable-background="new 0 0 100 100" xml:space="preserve" width="99" height="84"><rect id="backgroundrect" width="100%" height="100%" x="0" y="0" fill="none" stroke="none" class=""/><g class="currentLayer"><title>Layer 1</title><path d="M71.39999980926514,1.9073486257070726e-7 H5.699999809265137 c-3.1,0 -5.7,2.5 -5.7,5.7 v51 c0,3.1 2.5,5.7 5.7,5.7 h65.7 c3.1,0 5.7,-2.5 5.7,-5.7 v-51 C77.09999980926514,2.5000001907348626 74.59999980926514,1.9073486257070726e-7 71.39999980926514,1.9073486257070726e-7 zM5.699999809265137,3.5000001907348626 h65.7 c1.2,0 2.2,1 2.2,2.2 v9.1 h-70 v-9.1 C3.4999998092651365,4.500000190734863 4.4999998092651365,3.5000001907348626 5.699999809265137,3.5000001907348626 zM71.39999980926514,58.80000019073486 H5.699999809265137 c-1.2,0 -2.2,-1 -2.2,-2.2 V18.200000190734862 h70 v38.5 C73.59999980926514,57.90000019073486 72.59999980926514,58.80000019073486 71.39999980926514,58.80000019073486 zM82.19999980926514,73.10000019073486 H16.499999809265137 c-1,0 -1.8,-0.8 -1.8,-1.8 s0.8,-1.8 1.8,-1.8 H82.19999980926514 c1.2,0 2.2,-1 2.2,-2.2 v-51 c0,-1 0.8,-1.8 1.8,-1.8 s1.8,0.8 1.8,1.8 v51 C87.89999980926514,70.60000019073486 85.39999980926514,73.10000019073486 82.19999980926514,73.10000019073486 zM92.69999980926514,83.60000019073486 H26.999999809265137 c-1,0 -1.8,-0.8 -1.8,-1.8 s0.8,-1.8 1.8,-1.8 h65.7 c1.2,0 2.2,-1 2.2,-2.2 v-51 c0,-1 0.8,-1.8 1.8,-1.8 s1.8,0.8 1.8,1.8 v51 C98.39999980926514,81.10000019073486 95.79999980926513,83.60000019073486 92.69999980926514,83.60000019073486 zM24.599999809265135,10.300000190734863 c-0.30000000000000004,-0.30000000000000004 -0.5,-0.8 -0.5,-1.2 s0.2,-0.9 0.5,-1.2 c0.6000000000000001,-0.6000000000000001 1.8,-0.6000000000000001 2.5,0 c0.30000000000000004,0.30000000000000004 0.5,0.8 0.5,1.2 s-0.2,0.9 -0.5,1.2 c-0.30000000000000004,0.30000000000000004 -0.8,0.5 -1.2,0.5 S24.899999809265136,10.700000190734862 24.599999809265135,10.300000190734863 zM17.199999809265137,10.300000190734863 c-0.30000000000000004,-0.30000000000000004 -0.5,-0.8 -0.5,-1.2 s0.2,-0.9 0.5,-1.2 c0.6000000000000001,-0.6000000000000001 1.8,-0.6000000000000001 2.5,0 c0.30000000000000004,0.30000000000000004 0.5,0.8 0.5,1.2 s-0.2,0.9 -0.5,1.2 c-0.30000000000000004,0.30000000000000004 -0.8,0.5 -1.2,0.5 S17.499999809265137,10.700000190734862 17.199999809265137,10.300000190734863 zM9.899999809265136,10.300000190734863 c-0.30000000000000004,-0.30000000000000004 -0.5,-0.8 -0.5,-1.2 s0.2,-0.9 0.5,-1.2 c0.7000000000000001,-0.6000000000000001 1.8,-0.6000000000000001 2.5,0 c0.30000000000000004,0.30000000000000004 0.5,0.8 0.5,1.2 s-0.2,0.9 -0.5,1.2 c-0.30000000000000004,0.30000000000000004 -0.8,0.5 -1.2,0.5 S10.199999809265137,10.700000190734862 9.899999809265136,10.300000190734863 z" id="svg_1" class=""/></g></svg>

<svg xmlns="http://www.w3.org/2000/svg" width="99" height="84"><rect id="backgroundrect" width="100%" height="100%" x="0" y="0" fill="none" stroke="none"/><g class="currentLayer"><path d="M71.4 0H5.7C2.6 0 0 2.5 0 5.7v51c0 3.1 2.5 5.7 5.7 5.7h65.7c3.1 0 5.7-2.5 5.7-5.7v-51c0-3.2-2.5-5.7-5.7-5.7zM5.7 3.5h65.7c1.2 0 2.2 1 2.2 2.2v9.1h-70V5.7c-.1-1.2.9-2.2 2.1-2.2zm65.7 55.3H5.7c-1.2 0-2.2-1-2.2-2.2V18.2h70v38.5c.1 1.2-.9 2.1-2.1 2.1zm10.8 14.3H16.5c-1 0-1.8-.8-1.8-1.8s.8-1.8 1.8-1.8h65.7c1.2 0 2.2-1 2.2-2.2v-51c0-1 .8-1.8 1.8-1.8s1.8.8 1.8 1.8v51c-.1 3.3-2.6 5.8-5.8 5.8zm10.5 10.5H27c-1 0-1.8-.8-1.8-1.8S26 80 27 80h65.7c1.2 0 2.2-1 2.2-2.2v-51c0-1 .8-1.8 1.8-1.8s1.8.8 1.8 1.8v51c-.1 3.3-2.7 5.8-5.8 5.8zM24.6 10.3c-.3-.3-.5-.8-.5-1.2s.2-.9.5-1.2c.6-.6 1.8-.6 2.5 0 .3.3.5.8.5 1.2s-.2.9-.5 1.2c-.3.3-.8.5-1.2.5s-1-.1-1.3-.5zm-7.4 0c-.3-.3-.5-.8-.5-1.2s.2-.9.5-1.2c.6-.6 1.8-.6 2.5 0 .3.3.5.8.5 1.2s-.2.9-.5 1.2c-.3.3-.8.5-1.2.5s-1-.1-1.3-.5zm-7.3 0c-.3-.3-.5-.8-.5-1.2s.2-.9.5-1.2c.7-.6 1.8-.6 2.5 0 .3.3.5.8.5 1.2s-.2.9-.5 1.2c-.3.3-.8.5-1.2.5s-1-.1-1.3-.5z" id="svg_1"/></g></svg>
